frontend/public/svg/finance/bank.svg

<svg width="160" height="160" viewBox="0 0 160 160" fill="none" xmlns="http://www.w3.org/2000/svg">
<g clip-path="url(#clip0)">
<path d="M12.4969 138.101C12.193 135.632 11.9568 133.418 11.6384 131.216C11.3103 128.965 11.6582 127.074 13.5524 125.477C14.2356 124.9 14.5637 123.556 14.5552 122.566C14.5158 117.962 14.1923 113.36 14.1779 108.756C14.1602 102.808 14.3446 96.8592 14.4306 90.9102C14.4529 89.352 14.4338 87.7926 14.4338 86.1537C13.9231 85.8781 13.3984 85.6286 12.8619 85.4068C10.442 84.5536 9.71675 82.7434 9.9189 80.353C10.125 77.9298 10.2857 75.5027 10.4898 72.7559C8.83391 72.7559 7.61771 72.8412 6.42054 72.7349C4.7692 72.5879 2.75888 72.7218 2.07038 70.8315C1.36941 68.9098 1.39564 66.8279 2.88159 65.1054C4.64123 63.0649 6.31559 60.9345 8.22621 59.0449C12.9374 54.3849 17.6958 49.7682 22.5553 45.2618C36.3213 32.5065 50.5291 20.2684 65.4555 8.87768C67.9545 6.97429 70.3731 4.95336 72.7588 2.90493C76.1626 -0.0157723 79.8604 -0.179866 83.7328 1.68151C85.6395 2.6387 87.4956 3.69365 89.294 4.8419C109.908 17.5263 129.554 31.5024 146.972 48.4063C150.35 51.688 153.443 55.2611 156.626 58.7383C157.253 59.3811 157.74 60.148 158.053 60.9897C158.367 61.8314 158.501 62.7294 158.448 63.6261C158.279 67.0247 156.267 68.575 153.274 69.1342C154.044 77.3187 153.587 78.174 146.817 81.1491V121.723C152.659 124.494 151.722 130.067 151.586 135.472C152.373 135.698 153.091 135.923 153.817 136.109C156.53 136.801 156.836 137.398 156.968 140.319C157.099 143.215 157.615 146.091 157.827 148.983C158.221 154.333 156.704 155.897 151.429 155.96C121.548 156.318 91.6653 156.551 61.7893 157.12C44.2736 157.454 26.769 158.335 9.25922 158.97C8.24911 159.007 7.23704 159.091 6.22825 159.069C2.65909 158.989 0.966437 157.394 1.10558 153.902C1.24866 150.318 1.5545 146.731 1.99162 143.17C2.39789 139.855 3.73483 138.707 7.04146 138.417C8.81816 138.277 10.5995 138.212 12.4969 138.101ZM150.255 61.5776C147.432 58.5361 145.093 55.8446 142.575 53.3348C126.095 36.9126 107.358 23.4589 87.4352 11.5792C85.7025 10.5461 83.8654 9.69029 82.1189 8.68346C80.3468 7.66352 78.7683 7.71799 77.2029 9.1278C75.9559 10.2528 74.6235 11.2937 73.2714 12.2952C52.4784 27.6699 33.1197 44.7268 14.3616 62.4879C13.5786 63.2289 12.8777 64.056 11.8019 65.1993C58.0002 62.4801 103.76 63.8945 150.255 61.5776ZM97.6163 135.327H122.492C122.492 132.604 122.34 130.042 122.53 127.505C122.766 124.355 125.589 123.705 128.037 122.602C127.733 109.107 127.43 95.6673 127.122 82.0273C123.75 80.7921 123.044 78.1418 123.592 74.763C123.724 73.3459 123.738 71.921 123.632 70.502H94.2047C94.7731 73.216 95.3008 75.3655 95.6624 77.5426C96.2577 81.1242 95.543 82.5229 92.3571 84.4551C91.979 84.6842 91.6115 84.9323 91.2098 85.1902C91.1212 85.6365 91.0772 86.0907 91.0785 86.5462C92.2409 97.7151 93.0338 108.898 92.7575 120.142C92.7371 120.968 93.4985 121.83 93.9467 122.647C94.9483 124.475 96.3535 126.18 96.9049 128.13C97.5303 130.335 97.3984 132.754 97.6163 135.327ZM33.7085 84.8056C35.0041 97.9862 36.2813 110.978 37.5572 123.957C42.4233 124.58 43.4564 125.627 43.9086 130.555C44.0792 132.409 44.0885 134.277 44.164 135.959H67.1012C66.9043 133.22 66.7402 130.905 66.5683 128.588C66.4131 126.496 66.777 124.673 68.366 123.044C69.0971 122.124 69.4719 120.971 69.4214 119.797C69.1195 108.377 68.7047 96.9564 68.3122 85.2585C65.3191 84.3343 64.6449 81.9328 64.9843 78.7607C65.1354 76.3073 65.1535 73.8474 65.0381 71.392H39.4527C39.8183 73.0125 40.0795 74.1933 40.3512 75.372C41.9645 82.3732 40.9813 83.8585 33.7085 84.8056ZM8.32531 151.915C9.955 151.915 11.3911 151.954 12.8239 151.909C31.0011 151.329 49.1731 150.531 67.3546 150.195C93.6238 149.707 119.899 149.551 146.172 149.244C147.592 149.226 149.011 149.116 150.597 149.041L151.122 142.678C103.23 142.379 55.7857 142.098 8.32787 145.238L8.32531 151.915ZM74.9786 85.3044C75.7898 97.6121 76.58 109.61 77.3683 121.572H85.1571C84.9497 109.35 84.7475 97.423 84.5421 85.3044H74.9786ZM20.4879 85.3635C21.0734 98.3216 21.6463 111.009 22.2246 123.799H29.4935C27.6518 110.879 27.338 98.0833 27.4975 85.3635H20.4879ZM133.885 81.8731V122.556L139.929 122.117C140.15 108.383 140.364 94.9972 140.585 81.3585L133.885 81.8731ZM36.8438 130.071C30.3336 130.51 24.0938 129.882 17.7608 131.292C17.556 133.512 17.367 135.546 17.1576 137.825L37.7069 136.68C37.4149 134.445 37.1582 132.479 36.8438 130.071ZM88.6337 71.0783H70.4184L71.2873 77.4684H88.1067C88.295 75.1778 88.4584 73.2042 88.6337 71.0783ZM89.0071 128.696C83.8221 128.749 78.7604 128.843 73.6751 129.314C73.3732 131.639 73.1323 133.491 72.8875 135.391H90.8941L89.0071 128.696ZM144.779 135.334C144.43 133.173 144.117 131.238 143.733 128.868L128.748 129.524C128.5 131.727 128.308 133.437 128.091 135.331L144.779 135.334ZM16.307 77.5143H32.1825V71.5679L15.606 72.4159L16.307 77.5143ZM130.02 73.8303C134.644 73.4798 138.774 73.2035 142.896 72.8406C145.346 72.6253 145.536 72.259 145.119 69.0213L129.186 69.7052C129.499 71.2502 129.733 72.41 130.02 73.8303Z" fill="black"/>
</g>
<defs>
<clipPath id="clip0">
<rect width="158.177" height="158.834" fill="white" transform="translate(0.923828 0.421387)"/>
</clipPath>
</defs>
</svg>

<svg xmlns="http://www.w3.org/2000/svg" width="160" height="160" fill="none" viewBox="0 0 160 160"><g clip-path="url(#a)"><path fill="#000" d="M12.497 138.101c-.304-2.469-.54-4.683-.859-6.885-.328-2.251.02-4.142 1.914-5.739.684-.577 1.012-1.921 1.003-2.911-.04-4.604-.363-9.206-.377-13.81-.018-5.948.167-11.897.253-17.846.022-1.558.003-3.117.003-4.756a17 17 0 0 0-1.572-.747c-2.42-.853-3.145-2.664-2.943-5.054.206-2.423.367-4.85.57-7.597-1.655 0-2.871.085-4.068-.021-1.652-.147-3.662-.013-4.35-1.903-.702-1.922-.675-4.004.81-5.727 1.76-2.04 3.435-4.17 5.345-6.06 4.711-4.66 9.47-9.277 14.33-13.783 13.765-12.755 27.973-24.994 42.9-36.384 2.498-1.904 4.917-3.925 7.303-5.973C76.163-.015 79.86-.18 83.733 1.682a62 62 0 0 1 5.561 3.16c20.614 12.684 40.26 26.66 57.678 43.564 3.378 3.282 6.471 6.855 9.654 10.332a6.44 6.44 0 0 1 1.822 4.888c-.169 3.399-2.181 4.949-5.174 5.508.77 8.185.313 9.04-6.457 12.015v40.574c5.842 2.771 4.905 8.344 4.769 13.749.787.226 1.505.451 2.231.637 2.713.692 3.019 1.289 3.151 4.21.131 2.896.647 5.772.859 8.664.394 5.35-1.123 6.914-6.398 6.977-29.881.358-59.764.591-89.64 1.16-17.515.334-35.02 1.215-52.53 1.85-1.01.037-2.022.121-3.03.099-3.57-.08-5.263-1.675-5.123-5.167.143-3.584.448-7.171.886-10.732.406-3.315 1.743-4.463 5.05-4.753 1.776-.14 3.558-.205 5.455-.316m137.758-76.523c-2.823-3.042-5.162-5.733-7.68-8.243-16.48-16.422-35.217-29.876-55.14-41.756-1.733-1.033-3.57-1.889-5.316-2.896-1.772-1.02-3.35-.965-4.916.445-1.247 1.125-2.58 2.166-3.932 3.167C52.478 27.67 33.12 44.727 14.361 62.488c-.782.74-1.483 1.568-2.56 2.711 46.2-2.719 91.959-1.304 138.454-3.621m-52.639 73.749h24.876c0-2.723-.152-5.285.038-7.822.236-3.15 3.059-3.8 5.507-4.903l-.915-40.575c-3.372-1.235-4.078-3.885-3.53-7.264.132-1.417.146-2.842.04-4.261H94.205c.568 2.714 1.096 4.864 1.457 7.04.596 3.582-.119 4.98-3.305 6.913-.378.23-.745.477-1.147.735q-.134.671-.131 1.356c1.162 11.17 1.955 22.352 1.678 33.596-.02.826.742 1.688 1.19 2.505 1.001 1.828 2.406 3.533 2.958 5.483.625 2.205.493 4.624.711 7.197M33.71 84.806l3.848 39.151c4.866.623 5.9 1.67 6.352 6.598.17 1.854.18 3.722.255 5.404h22.937c-.197-2.739-.36-5.054-.533-7.371-.155-2.092.209-3.915 1.798-5.544a4.88 4.88 0 0 0 1.055-3.247c-.302-11.42-.716-22.84-1.109-34.538-2.993-.925-3.667-3.326-3.328-6.498.151-2.454.17-4.914.054-7.369H39.453c.365 1.62.627 2.801.898 3.98 1.614 7.001.63 8.487-6.642 9.434M8.325 151.915c1.63 0 3.066.039 4.499-.006 18.177-.58 36.35-1.378 54.53-1.714 26.27-.488 52.545-.644 78.818-.951 1.42-.018 2.839-.128 4.425-.203l.525-6.363c-47.892-.299-95.336-.58-142.794 2.56zm66.654-66.61c.81 12.307 1.601 24.305 2.39 36.267h7.788l-.615-36.268zm-54.491.058 1.737 38.436h7.268c-1.841-12.92-2.155-25.716-1.995-38.436zm113.397-3.49v40.683l6.044-.439c.221-13.734.435-27.12.656-40.758zm-97.041 48.198c-6.51.439-12.75-.189-19.083 1.221-.205 2.22-.394 4.254-.603 6.533l20.549-1.145zm51.79-58.993H70.418l.87 6.39h16.819zm.373 57.618c-5.185.053-10.247.147-15.332.618-.302 2.325-.543 4.177-.787 6.077h18.006zm55.772 6.638-1.046-6.466-14.985.656c-.248 2.203-.44 3.913-.657 5.807zM16.307 77.514h15.875v-5.946l-16.576.848zM130.02 73.83c4.624-.35 8.754-.626 12.876-.99 2.45-.215 2.64-.581 2.223-3.819l-15.933.684z"/></g><defs><clipPath id="a"><path fill="#fff" d="M.924.421H159.1v158.834H.924z"/></clipPath></defs></svg>
